X:3
T:Behind The Haystack
R:jig
C:Traditional
M:6/8
L:1/8
K:D
|:A |\
"D"d2 e fdB |\
"Bm"d2 e fdB |\
"A"AFE EDE |\
"A"AFE E2 A |\
"D"d2 e fdB |\
"Bm"d2 e fdB |\
"D"AFD E2 D |\
"D"AFD D2 :: A |\
"Bm"B2 B BAF |\
"Bm"ABc dcB |\
"A"AFE EDE |\
"A"AFE E2 A |\
"Bm"B2 B BAF |\
"Bm"ABc dcB |\
"D"AFD E2 D |\
"D"AFD D2 :: f |\
"G"gag "D"fgf |\
"A"ede "Bm"fdB |\
"A"AFE EDE |\
"A"AFE E2 f |\
"G"gag "D"fgf |\
"A"ede "Bm"fdB |\
"D"AFD E2 D |\
"D"AFD D2 :|
